casedrop/img/profile/icons/copy.svg

<svg width="18" height="18" viewBox="0 0 18 18" fill="none" xmlns="http://www.w3.org/2000/svg">
<path d="M12 9.675V12.825C12 15.45 10.95 16.5 8.325 16.5H5.175C2.55 16.5 1.5 15.45 1.5 12.825V9.675C1.5 7.05 2.55 6 5.175 6H8.325C10.95 6 12 7.05 12 9.675Z" fill="#2B59FF"/>
<path d="M12.8249 1.5H9.67493C7.36259 1.5 6.27813 2.32057 6.05221 4.30426C6.00494 4.71926 6.34865 5.0625 6.76633 5.0625H8.32493C11.4749 5.0625 12.9374 6.525 12.9374 9.675V11.2336C12.9374 11.6512 13.2806 11.995 13.6957 11.9477C15.6794 11.7218 16.4999 10.6373 16.4999 8.325V5.175C16.4999 2.55 15.4499 1.5 12.8249 1.5Z" fill="#2B59FF"/>
</svg>

<svg width="18" height="18" fill="none" xmlns="http://www.w3.org/2000/svg"><path d="M12 9.675v3.15c0 2.625-1.05 3.675-3.675 3.675h-3.15C2.55 16.5 1.5 15.45 1.5 12.825v-3.15C1.5 7.05 2.55 6 5.175 6h3.15C10.95 6 12 7.05 12 9.675z" fill="#2B59FF"/><path d="M12.825 1.5h-3.15c-2.312 0-3.397.82-3.623 2.804-.047.415.297.758.714.758h1.559c3.15 0 4.612 1.463 4.612 4.613v1.559c0 .417.344.761.759.714 1.983-.226 2.804-1.31 2.804-3.623v-3.15c0-2.625-1.05-3.675-3.675-3.675z" fill="#2B59FF"/></svg>
